src/basic/400/u25bc-down.svg

<svg width="9" height="32" viewBox="0 0 9 32" fill="none" xmlns="http://www.w3.org/2000/svg">
<path fill-rule="evenodd" clip-rule="evenodd" d="M8.70503,15.0542l-0.37963,0.3254l-3.5,3l-0.32539,0.2789l-0.3254,-0.2789l-3.5,-3l-0.37963,-0.3254l0.65079,-0.7592l0.37963,0.3254l3.17461,2.7211l3.1746,-2.7211l0.37963,-0.3254z" fill="black"/>
</svg>

<svg width="9" height="32" viewBox="0 0 9 32" fill="none" xmlns="http://www.w3.org/2000/svg">
<path fill-rule="evenodd" clip-rule="evenodd" d="M8.70503 15.0542L8.3254 15.3796L4.8254 18.3796L4.50001 18.6585L4.17461 18.3796L0.674611 15.3796L0.294983 15.0542L0.945774 14.295L1.3254 14.6204L4.50001 17.3415L7.67461 14.6204L8.05424 14.295L8.70503 15.0542Z" fill="black"/>
</svg>
